img/rulonnaya.svg

<svg width="124" height="116" viewBox="0 0 124 116" fill="none" xmlns="http://www.w3.org/2000/svg">
<g filter="url(#filter0_i_1836_1281)">
<rect x="9" y="1" width="115" height="115" rx="15" fill="#F8F4F4"/>
</g>
<g filter="url(#filter1_d_1836_1281)">
<path d="M62.3762 14.957L25.0806 55.4053L74.5781 63.3363L108.681 17.919L62.3762 14.957Z" fill="#F4CFD5"/>
<path d="M74.6353 63.3358V98.6289L108.681 88.7151V18.1289L74.6353 63.3358Z" fill="white"/>
<path d="M74.6365 63.3352L30.7549 56.1973V88.7145L74.6365 98.6283V63.3352Z" fill="#707070"/>
<g filter="url(#filter2_d_1836_1281)">
<path d="M48.9099 68.1838L94.3067 16.9363L62.153 14.5586L25.3246 54.6105C26.8867 54.8721 48.9099 68.1838 48.9099 68.1838Z" fill="#C1141E"/>
</g>
<path d="M34.7727 55.0131L68.9624 18.5245" stroke="#E2AFAF"/>
<path d="M29.2022 54.3543L64.0448 17.335" stroke="#E2AFAF"/>
<path d="M39.4858 56.6602L74.637 18.9214" stroke="#E2AFAF"/>
<path d="M45.0059 57.3188L80.5126 19.1102" stroke="#E2AFAF"/>
<path d="M49.7768 58.9652L86.5407 19.1099" stroke="#E2AFAF"/>
<g filter="url(#filter3_d_1836_1281)">
<ellipse cx="6.94752" cy="7.12523" rx="6.94752" ry="7.12523" transform="matrix(0.945888 -0.301767 0.28069 0.966822 14.3862 56.1602)" fill="#707070"/>
</g>
<g filter="url(#filter4_dd_1836_1281)">
<path fill-rule="evenodd" clip-rule="evenodd" d="M21.7974 67.7361C19.7262 67.0637 17.9993 65.3617 17.3205 63.0235C16.2325 59.2761 18.2485 55.3138 21.8233 54.1733C23.1466 53.7511 24.498 53.7748 25.7306 54.1622L45.0092 57.987L43.0238 71.7271L23.3692 68.0389C22.8527 68.0049 22.3457 67.9086 21.8573 67.7552L21.7953 67.7436L21.7974 67.7361Z" fill="#C1141E"/>
</g>
<g filter="url(#filter5_d_1836_1281)">
<ellipse cx="6.94752" cy="7.12523" rx="6.94752" ry="7.12523" transform="matrix(0.945888 -0.301767 0.28069 0.966822 35.4565 60.2461)" fill="#707070"/>
</g>
<g filter="url(#filter6_i_1836_1281)">
<ellipse cx="6.23495" cy="6.39443" rx="6.23495" ry="6.39443" transform="matrix(0.945888 -0.301767 0.28069 0.966822 36.3359 60.7383)" fill="white"/>
</g>
<path d="M43.6172 64.8475C43.2555 64.1907 43.4509 63.3624 44.0537 62.9976C44.6565 62.6327 45.4385 62.8695 45.8003 63.5263C46.5238 64.84 46.133 66.4965 44.9273 67.2262C43.7217 67.9558 42.1578 67.4824 41.4343 66.1687C40.3489 64.1981 40.9352 61.7134 42.7436 60.6189C44.5521 59.5244 46.8979 60.2345 47.9833 62.2051C49.4303 64.8325 48.6487 68.1455 46.2374 69.6049C43.8262 71.0642 40.6983 70.1173 39.2513 67.4899" stroke="#E38696" stroke-miterlimit="22.9256" stroke-linecap="round"/>
</g>
<defs>
<filter id="filter0_i_1836_1281" x="9" y="1" width="117" height="117" filterUnits="userSpaceOnUse" color-interpolation-filters="sRGB">
<feFlood flood-opacity="0" result="BackgroundImageFix"/>
<feBlend mode="normal" in="SourceGraphic" in2="BackgroundImageFix" result="shape"/>
<feColorMatrix in="SourceAlpha" type="matrix" values="0 0 0 0 0 0 0 0 0 0 0 0 0 0 0 0 0 0 127 0" result="hardAlpha"/>
<feOffset dx="2" dy="2"/>
<feGaussianBlur stdDeviation="3"/>
<feComposite in2="hardAlpha" operator="arithmetic" k2="-1" k3="1"/>
<feColorMatrix type="matrix" values="0 0 0 0 0 0 0 0 0 0 0 0 0 0 0 0 0 0 0.05 0"/>
<feBlend mode="normal" in2="shape" result="effect1_innerShadow_1836_1281"/>
</filter>
<filter id="filter1_d_1836_1281" x="13.0869" y="13.5586" width="98.5942" height="90.0703" filterUnits="userSpaceOnUse" color-interpolation-filters="sRGB">
<feFlood flood-opacity="0" result="BackgroundImageFix"/>
<feColorMatrix in="SourceAlpha" type="matrix" values="0 0 0 0 0 0 0 0 0 0 0 0 0 0 0 0 0 0 127 0" result="hardAlpha"/>
<feOffset dy="2"/>
<feGaussianBlur stdDeviation="1.5"/>
<feComposite in2="hardAlpha" operator="out"/>
<feColorMatrix type="matrix" values="0 0 0 0 0 0 0 0 0 0 0 0 0 0 0 0 0 0 0.25 0"/>
<feBlend mode="normal" in2="BackgroundImageFix" result="effect1_dropShadow_1836_1281"/>
<feBlend mode="normal" in="SourceGraphic" in2="effect1_dropShadow_1836_1281" result="shape"/>
</filter>
<filter id="filter2_d_1836_1281" x="21.3247" y="12.5586" width="76.9819" height="61.625" filterUnits="userSpaceOnUse" color-interpolation-filters="sRGB">
<feFlood flood-opacity="0" result="BackgroundImageFix"/>
<feColorMatrix in="SourceAlpha" type="matrix" values="0 0 0 0 0 0 0 0 0 0 0 0 0 0 0 0 0 0 127 0" result="hardAlpha"/>
<feOffset dy="2"/>
<feGaussianBlur stdDeviation="2"/>
<feComposite in2="hardAlpha" operator="out"/>
<feColorMatrix type="matrix" values="0 0 0 0 0 0 0 0 0 0 0 0 0 0 0 0 0 0 0.5 0"/>
<feBlend mode="normal" in2="BackgroundImageFix" result="effect1_dropShadow_1836_1281"/>
<feBlend mode="normal" in="SourceGraphic" in2="effect1_dropShadow_1836_1281" result="shape"/>
</filter>
<filter id="filter3_d_1836_1281" x="13.0869" y="50.75" width="19.7417" height="20.4043" filterUnits="userSpaceOnUse" color-interpolation-filters="sRGB">
<feFlood flood-opacity="0" result="BackgroundImageFix"/>
<feColorMatrix in="SourceAlpha" type="matrix" values="0 0 0 0 0 0 0 0 0 0 0 0 0 0 0 0 0 0 127 0" result="hardAlpha"/>
<feOffset/>
<feGaussianBlur stdDeviation="1.5"/>
<feComposite in2="hardAlpha" operator="out"/>
<feColorMatrix type="matrix" values="0 0 0 0 0 0 0 0 0 0 0 0 0 0 0 0 0 0 0.25 0"/>
<feBlend mode="normal" in2="BackgroundImageFix" result="effect1_dropShadow_1836_1281"/>
<feBlend mode="normal" in="SourceGraphic" in2="effect1_dropShadow_1836_1281" result="shape"/>
</filter>
<filter id="filter4_dd_1836_1281" x="0.0253906" y="24.8633" width="77.9839" height="67.8633" filterUnits="userSpaceOnUse" color-interpolation-filters="sRGB">
<feFlood flood-opacity="0" result="BackgroundImageFix"/>
<feColorMatrix in="SourceAlpha" type="matrix" values="0 0 0 0 0 0 0 0 0 0 0 0 0 0 0 0 0 0 127 0" result="hardAlpha"/>
<feOffset dx="8" dy="-4"/>
<feGaussianBlur stdDeviation="12.5"/>
<feComposite in2="hardAlpha" operator="out"/>
<feColorMatrix type="matrix" values="0 0 0 0 0 0 0 0 0 0 0 0 0 0 0 0 0 0 0.25 0"/>
<feBlend mode="normal" in2="BackgroundImageFix" result="effect1_dropShadow_1836_1281"/>
<feColorMatrix in="SourceAlpha" type="matrix" values="0 0 0 0 0 0 0 0 0 0 0 0 0 0 0 0 0 0 127 0" result="hardAlpha"/>
<feOffset dy="2"/>
<feGaussianBlur stdDeviation="2"/>
<feComposite in2="hardAlpha" operator="out"/>
<feColorMatrix type="matrix" values="0 0 0 0 0 0 0 0 0 0 0 0 0 0 0 0 0 0 0.25 0"/>
<feBlend mode="normal" in2="effect1_dropShadow_1836_1281" result="effect2_dropShadow_1836_1281"/>
<feBlend mode="normal" in="SourceGraphic" in2="effect2_dropShadow_1836_1281" result="shape"/>
</filter>
<filter id="filter5_d_1836_1281" x="34.1572" y="56.8359" width="19.7417" height="20.4043" filterUnits="userSpaceOnUse" color-interpolation-filters="sRGB">
<feFlood flood-opacity="0" result="BackgroundImageFix"/>
<feColorMatrix in="SourceAlpha" type="matrix" values="0 0 0 0 0 0 0 0 0 0 0 0 0 0 0 0 0 0 127 0" result="hardAlpha"/>
<feOffset dy="2"/>
<feGaussianBlur stdDeviation="1.5"/>
<feComposite in2="hardAlpha" operator="out"/>
<feColorMatrix type="matrix" values="0 0 0 0 0 0 0 0 0 0 0 0 0 0 0 0 0 0 0.25 0"/>
<feBlend mode="normal" in2="BackgroundImageFix" result="effect1_dropShadow_1836_1281"/>
<feBlend mode="normal" in="SourceGraphic" in2="effect1_dropShadow_1836_1281" result="shape"/>
</filter>
<filter id="filter6_i_1836_1281" x="37.8623" y="58.5742" width="12.3325" height="12.9297" filterUnits="userSpaceOnUse" color-interpolation-filters="sRGB">
<feFlood flood-opacity="0" result="BackgroundImageFix"/>
<feBlend mode="normal" in="SourceGraphic" in2="BackgroundImageFix" result="shape"/>
<feColorMatrix in="SourceAlpha" type="matrix" values="0 0 0 0 0 0 0 0 0 0 0 0 0 0 0 0 0 0 127 0" result="hardAlpha"/>
<feOffset/>
<feGaussianBlur stdDeviation="2"/>
<feComposite in2="hardAlpha" operator="arithmetic" k2="-1" k3="1"/>
<feColorMatrix type="matrix" values="0 0 0 0 0 0 0 0 0 0 0 0 0 0 0 0 0 0 0.25 0"/>
<feBlend mode="normal" in2="shape" result="effect1_innerShadow_1836_1281"/>
</filter>
</defs>
</svg>

<svg width="124" height="116" fill="none" xmlns="http://www.w3.org/2000/svg"><g filter="url(#filter0_i_1836_1281)"><rect x="9" y="1" width="115" height="115" rx="15" fill="#F8F4F4"/></g><g filter="url(#filter1_d_1836_1281)"><path d="M62.376 14.957L25.081 55.405l49.497 7.931 34.103-45.417-46.305-2.962z" fill="#F4CFD5"/><path d="M74.635 63.336v35.293l34.046-9.914V18.13L74.635 63.336z" fill="#fff"/><path d="M74.636 63.335l-43.881-7.138v32.517l43.882 9.914V63.335z" fill="#707070"/><g filter="url(#filter2_d_1836_1281)"><path d="M48.91 68.184l45.397-51.248-32.154-2.377L25.325 54.61c1.562.261 23.585 13.573 23.585 13.573z" fill="#C1141E"/></g><path d="M34.773 55.013l34.19-36.489m-39.761 35.83l34.843-37.019M39.486 56.66l35.151-37.739M45.006 57.319L80.513 19.11M49.777 58.965L86.54 19.11" stroke="#E2AFAF"/><g filter="url(#filter3_d_1836_1281)"><ellipse cx="6.948" cy="7.125" rx="6.948" ry="7.125" transform="matrix(.94589 -.30177 .28069 .96682 14.386 56.16)" fill="#707070"/></g><g filter="url(#filter4_dd_1836_1281)"><path fill-rule="evenodd" clip-rule="evenodd" d="M21.797 67.736c-2.07-.672-3.798-2.374-4.477-4.713-1.087-3.747.928-7.71 4.503-8.85a6.438 6.438 0 013.908-.01l19.278 3.824-1.985 13.74-19.655-3.688a6.46 6.46 0 01-1.512-.284l-.062-.011.002-.008z" fill="#C1141E"/></g><g filter="url(#filter5_d_1836_1281)"><ellipse cx="6.948" cy="7.125" rx="6.948" ry="7.125" transform="matrix(.94589 -.30177 .28069 .96682 35.456 60.246)" fill="#707070"/></g><g filter="url(#filter6_i_1836_1281)"><ellipse cx="6.235" cy="6.394" rx="6.235" ry="6.394" transform="matrix(.94589 -.30177 .28069 .96682 36.336 60.738)" fill="#fff"/></g><path d="M43.617 64.847c-.361-.656-.166-1.485.437-1.85.602-.364 1.384-.127 1.746.53.724 1.313.333 2.97-.873 3.7-1.205.729-2.77.255-3.493-1.058-1.085-1.97-.499-4.456 1.31-5.55 1.808-1.095 4.154-.385 5.24 1.586 1.446 2.627.665 5.94-1.747 7.4-2.41 1.46-5.539.512-6.986-2.115" stroke="#E38696" stroke-miterlimit="22.926" stroke-linecap="round"/></g><defs><filter id="filter0_i_1836_1281" x="9" y="1" width="117" height="117" filterUnits="userSpaceOnUse" color-interpolation-filters="sRGB"><feFlood flood-opacity="0" result="BackgroundImageFix"/><feBlend in="SourceGraphic" in2="BackgroundImageFix" result="shape"/><feColorMatrix in="SourceAlpha" values="0 0 0 0 0 0 0 0 0 0 0 0 0 0 0 0 0 0 127 0" result="hardAlpha"/><feOffset dx="2" dy="2"/><feGaussianBlur stdDeviation="3"/><feComposite in2="hardAlpha" operator="arithmetic" k2="-1" k3="1"/><feColorMatrix values="0 0 0 0 0 0 0 0 0 0 0 0 0 0 0 0 0 0 0.05 0"/><feBlend in2="shape" result="effect1_innerShadow_1836_1281"/></filter><filter id="filter1_d_1836_1281" x="13.087" y="13.559" width="98.594" height="90.07" filterUnits="userSpaceOnUse" color-interpolation-filters="sRGB"><feFlood flood-opacity="0" result="BackgroundImageFix"/><feColorMatrix in="SourceAlpha" values="0 0 0 0 0 0 0 0 0 0 0 0 0 0 0 0 0 0 127 0" result="hardAlpha"/><feOffset dy="2"/><feGaussianBlur stdDeviation="1.5"/><feComposite in2="hardAlpha" operator="out"/><feColorMatrix values="0 0 0 0 0 0 0 0 0 0 0 0 0 0 0 0 0 0 0.25 0"/><feBlend in2="BackgroundImageFix" result="effect1_dropShadow_1836_1281"/><feBlend in="SourceGraphic" in2="effect1_dropShadow_1836_1281" result="shape"/></filter><filter id="filter2_d_1836_1281" x="21.325" y="12.559" width="76.982" height="61.625" filterUnits="userSpaceOnUse" color-interpolation-filters="sRGB"><feFlood flood-opacity="0" result="BackgroundImageFix"/><feColorMatrix in="SourceAlpha" values="0 0 0 0 0 0 0 0 0 0 0 0 0 0 0 0 0 0 127 0" result="hardAlpha"/><feOffset dy="2"/><feGaussianBlur stdDeviation="2"/><feComposite in2="hardAlpha" operator="out"/><feColorMatrix values="0 0 0 0 0 0 0 0 0 0 0 0 0 0 0 0 0 0 0.5 0"/><feBlend in2="BackgroundImageFix" result="effect1_dropShadow_1836_1281"/><feBlend in="SourceGraphic" in2="effect1_dropShadow_1836_1281" result="shape"/></filter><filter id="filter3_d_1836_1281" x="13.087" y="50.75" width="19.742" height="20.404" filterUnits="userSpaceOnUse" color-interpolation-filters="sRGB"><feFlood flood-opacity="0" result="BackgroundImageFix"/><feColorMatrix in="SourceAlpha" values="0 0 0 0 0 0 0 0 0 0 0 0 0 0 0 0 0 0 127 0" result="hardAlpha"/><feOffset/><feGaussianBlur stdDeviation="1.5"/><feComposite in2="hardAlpha" operator="out"/><feColorMatrix values="0 0 0 0 0 0 0 0 0 0 0 0 0 0 0 0 0 0 0.25 0"/><feBlend in2="BackgroundImageFix" result="effect1_dropShadow_1836_1281"/><feBlend in="SourceGraphic" in2="effect1_dropShadow_1836_1281" result="shape"/></filter><filter id="filter4_dd_1836_1281" x=".025" y="24.863" width="77.984" height="67.863" filterUnits="userSpaceOnUse" color-interpolation-filters="sRGB"><feFlood flood-opacity="0" result="BackgroundImageFix"/><feColorMatrix in="SourceAlpha" values="0 0 0 0 0 0 0 0 0 0 0 0 0 0 0 0 0 0 127 0" result="hardAlpha"/><feOffset dx="8" dy="-4"/><feGaussianBlur stdDeviation="12.5"/><feComposite in2="hardAlpha" operator="out"/><feColorMatrix values="0 0 0 0 0 0 0 0 0 0 0 0 0 0 0 0 0 0 0.25 0"/><feBlend in2="BackgroundImageFix" result="effect1_dropShadow_1836_1281"/><feColorMatrix in="SourceAlpha" values="0 0 0 0 0 0 0 0 0 0 0 0 0 0 0 0 0 0 127 0" result="hardAlpha"/><feOffset dy="2"/><feGaussianBlur stdDeviation="2"/><feComposite in2="hardAlpha" operator="out"/><feColorMatrix values="0 0 0 0 0 0 0 0 0 0 0 0 0 0 0 0 0 0 0.25 0"/><feBlend in2="effect1_dropShadow_1836_1281" result="effect2_dropShadow_1836_1281"/><feBlend in="SourceGraphic" in2="effect2_dropShadow_1836_1281" result="shape"/></filter><filter id="filter5_d_1836_1281" x="34.157" y="56.836" width="19.742" height="20.404" filterUnits="userSpaceOnUse" color-interpolation-filters="sRGB"><feFlood flood-opacity="0" result="BackgroundImageFix"/><feColorMatrix in="SourceAlpha" values="0 0 0 0 0 0 0 0 0 0 0 0 0 0 0 0 0 0 127 0" result="hardAlpha"/><feOffset dy="2"/><feGaussianBlur stdDeviation="1.5"/><feComposite in2="hardAlpha" operator="out"/><feColorMatrix values="0 0 0 0 0 0 0 0 0 0 0 0 0 0 0 0 0 0 0.25 0"/><feBlend in2="BackgroundImageFix" result="effect1_dropShadow_1836_1281"/><feBlend in="SourceGraphic" in2="effect1_dropShadow_1836_1281" result="shape"/></filter><filter id="filter6_i_1836_1281" x="37.862" y="58.574" width="12.332" height="12.93" filterUnits="userSpaceOnUse" color-interpolation-filters="sRGB"><feFlood flood-opacity="0" result="BackgroundImageFix"/><feBlend in="SourceGraphic" in2="BackgroundImageFix" result="shape"/><feColorMatrix in="SourceAlpha" values="0 0 0 0 0 0 0 0 0 0 0 0 0 0 0 0 0 0 127 0" result="hardAlpha"/><feOffset/><feGaussianBlur stdDeviation="2"/><feComposite in2="hardAlpha" operator="arithmetic" k2="-1" k3="1"/><feColorMatrix values="0 0 0 0 0 0 0 0 0 0 0 0 0 0 0 0 0 0 0.25 0"/><feBlend in2="shape" result="effect1_innerShadow_1836_1281"/></filter></defs></svg>
